X: 3
T: Pariserpolka
R:
O: Norway
B:
D:
Z: 1998 by John Chambers <jc@trillian.mit.edu>
N:
M: 2/4
L: 1/16
K: D
|: "D"A2{BA}^GA F2A2 | "fine"d2z2 d4 | A2{BA}^GA F2A2 | "A7"E2z2 E4 \
|  "D"A2{BA}^GA F2A2 | d2e2 f3g | "A7"a2gf e2f2 | "D"d2z2 d4 :|
|: "D"a2{ba}^ga bagf | "Em"e2f2 g4 | "A7"g2{ag}fg agfe | "D"d2e2 f4 \
| f2{gf}ef g3f | "Em"e2d2 c2B2 | "A7"A2{BA}^GA B2c2 |1 "D"d2f2 a4 :|2 "D"d2z2 d4 |]

%%newpage


